packages/icons/src/hobby-knife.svg

<svg width="15" height="15" viewBox="0 0 15 15" fill="none" xmlns="http://www.w3.org/2000/svg">
  <path
    fill-rule="evenodd"
    clip-rule="evenodd"
    d="M12.3536 13.3536C12.1583 13.5488 11.8417 13.5488 11.6465 13.3536L6.39645 8.10355C6.36478 8.07188 6.33824 8.03702 6.31685 8H5.00002C4.78719 8 4.59769 7.86528 4.52777 7.66426L2.12777 0.764277C2.05268 0.548387 2.13355 0.309061 2.3242 0.182972C2.51486 0.0568819 2.76674 0.0761337 2.93602 0.229734L8.336 5.12972C8.44044 5.22449 8.50001 5.35897 8.50001 5.5V5.81684C8.53702 5.83824 8.57189 5.86478 8.60356 5.89645L13.8536 11.1464C14.0488 11.3417 14.0488 11.6583 13.8536 11.8536L12.3536 13.3536ZM8.25 6.95711L7.45711 7.75L12 12.2929L12.7929 11.5L8.25 6.95711ZM3.71669 2.28845L5.35549 7H6.2929L7.50001 5.79289V5.72146L3.71669 2.28845Z"
    fill="currentColor"
  />
</svg>

<svg xmlns="http://www.w3.org/2000/svg" width="15" height="15" fill="none"><path fill="currentColor" fill-rule="evenodd" d="M12.354 13.354a.5.5 0 0 1-.707 0l-5.25-5.25A.5.5 0 0 1 6.316 8H5a.5.5 0 0 1-.472-.336l-2.4-6.9A.5.5 0 0 1 2.936.23l5.4 4.9a.5.5 0 0 1 .164.37v.317a.5.5 0 0 1 .104.08l5.25 5.25a.5.5 0 0 1 0 .707zM8.25 6.957l-.793.793L12 12.293l.793-.793zM3.717 2.288 5.355 7h.938L7.5 5.793V5.72z" clip-rule="evenodd"/></svg>
